svgs/light/message-music.svg

<svg xmlns="http://www.w3.org/2000/svg" viewBox="0 0 512 512"><!-- Font Awesome Pro 6.0.0-alpha2 by @fontawesome - https://fontawesome.com License - https://fontawesome.com/license (Commercial License) --><path d="M448 0H64C28.75 0 0 28.75 0 64V352.002C0 387.252 28.75 416.002 64 416.002H160V500.002C160 509.84 171.025 515.479 179.125 509.627L304 416.002H448C483.25 416.002 512 387.252 512 352.002V64C512 28.75 483.25 0 448 0ZM480 352.002C480 369.602 465.6 384.002 448 384.002H303.924C296.996 384.002 290.254 386.25 284.713 390.408L192 460.002V400.002C192 391.164 184.836 384.002 176 384.002H64C46.4 384.002 32 369.602 32 352.002V64C32 46.4 46.4 32 64 32H448C465.6 32 480 46.4 480 64V352.002ZM338.193 92.812C329.568 86.812 318.568 85.375 308.693 89.125L212.693 125.125C200.287 129.781 191.943 141.812 191.943 155.094V228.814C184.641 225.818 176.564 224 167.943 224C137.068 224 111.943 245.531 111.943 272S137.068 320 167.943 320S223.943 298.469 223.943 272V155.062L319.943 119.094V196.814C312.641 193.818 304.564 192 295.943 192C265.068 192 239.943 213.531 239.943 240S265.068 288 295.943 288S351.943 266.469 351.943 240V119.094C351.943 108.594 346.787 98.781 338.193 92.812ZM167.943 288C155.162 288 143.943 280.531 143.943 272S155.162 256 167.943 256S191.943 263.469 191.943 272S180.725 288 167.943 288ZM295.943 256C283.162 256 271.943 248.531 271.943 240S283.162 224 295.943 224S319.943 231.469 319.943 240S308.725 256 295.943 256Z"/></svg>

<svg xmlns="http://www.w3.org/2000/svg" viewBox="0 0 512 512"><!--! Font Awesome Pro 6.3.0 by @fontawesome - https://fontawesome.com License - https://fontawesome.com/license (Commercial License) Copyright 2023 Fonticons, Inc. --><path d="M447.1 .0072h-384c-35.25 0-64 28.75-64 63.1v287.1c0 35.25 28.75 63.1 64 63.1h96v83.1c0 9.838 11.03 15.55 19.12 9.7l124.9-93.7h144c35.25 0 64-28.75 64-63.1V64C511.1 28.75 483.2 .0072 447.1 .0072zM480 352c0 17.6-14.4 32-32 32h-144.1c-6.928 0-13.67 2.248-19.21 6.406L192 460v-60c0-8.838-7.164-16-16-16H64c-17.6 0-32-14.4-32-32V64c0-17.6 14.4-32 32-32h384c17.6 0 32 14.4 32 32V352zM338.2 92.81c-8.625-6-19.62-7.438-29.5-3.688l-96 36C200.3 129.8 191.9 141.8 191.9 155.1v73.72C184.6 225.8 176.6 224 167.9 224c-30.88 0-56 21.53-56 48s25.12 48 56 48s56-21.53 56-48V155.1l96-35.97v77.72C312.6 193.8 304.6 192 295.9 192c-30.88 0-56 21.53-56 48s25.12 48 56 48s56-21.53 56-48V119.1C351.9 108.6 346.8 98.78 338.2 92.81zM167.9 288c-12.78 0-24-7.469-24-16S155.2 256 167.9 256s24 7.469 24 16S180.7 288 167.9 288zM295.9 256c-12.78 0-24-7.469-24-16s11.22-16 24-16s24 7.469 24 16S308.7 256 295.9 256z"/></svg>
